packages/icons/src/eye-fill.svg

<svg width="24" height="24" viewBox="0 0 24 24" fill="none" xmlns="http://www.w3.org/2000/svg">
<path d="M12 16C13.25 16 14.3125 15.5625 15.1875 14.6875C16.0625 13.8125 16.5 12.75 16.5 11.5C16.5 10.25 16.0625 9.1875 15.1875 8.3125C14.3125 7.4375 13.25 7 12 7C10.75 7 9.6875 7.4375 8.8125 8.3125C7.9375 9.1875 7.5 10.25 7.5 11.5C7.5 12.75 7.9375 13.8125 8.8125 14.6875C9.6875 15.5625 10.75 16 12 16ZM12 14.2C11.25 14.2 10.6125 13.9375 10.0875 13.4125C9.5625 12.8875 9.3 12.25 9.3 11.5C9.3 10.75 9.5625 10.1125 10.0875 9.5875C10.6125 9.0625 11.25 8.8 12 8.8C12.75 8.8 13.3875 9.0625 13.9125 9.5875C14.4375 10.1125 14.7 10.75 14.7 11.5C14.7 12.25 14.4375 12.8875 13.9125 13.4125C13.3875 13.9375 12.75 14.2 12 14.2ZM12 19C9.56667 19 7.35 18.3208 5.35 16.9625C3.35 15.6042 1.9 13.7833 1 11.5C1.9 9.21667 3.35 7.39583 5.35 6.0375C7.35 4.67917 9.56667 4 12 4C14.4333 4 16.65 4.67917 18.65 6.0375C20.65 7.39583 22.1 9.21667 23 11.5C22.1 13.7833 20.65 15.6042 18.65 16.9625C16.65 18.3208 14.4333 19 12 19Z" fill="black"/>
</svg>

<svg xmlns="http://www.w3.org/2000/svg" width="24" height="24" fill="none" viewBox="0 0 24 24">
  <path fill="#000" d="M12 16c1.25 0 2.313-.438 3.188-1.313.874-.874 1.312-1.937 1.312-3.187 0-1.25-.438-2.313-1.313-3.188C14.313 7.439 13.25 7 12 7c-1.25 0-2.313.438-3.188 1.313C7.939 9.187 7.5 10.25 7.5 11.5c0 1.25.438 2.313 1.313 3.188C9.687 15.562 10.75 16 12 16Zm0-1.8c-.75 0-1.387-.262-1.912-.787A2.604 2.604 0 0 1 9.3 11.5c0-.75.262-1.387.787-1.912A2.604 2.604 0 0 1 12 8.8c.75 0 1.387.262 1.912.787.525.526.788 1.163.788 1.913s-.262 1.387-.787 1.912A2.604 2.604 0 0 1 12 14.2Zm0 4.8c-2.433 0-4.65-.68-6.65-2.038-2-1.358-3.45-3.179-4.35-5.462.9-2.283 2.35-4.104 4.35-5.463C7.35 4.68 9.567 4 12 4c2.433 0 4.65.68 6.65 2.037 2 1.359 3.45 3.18 4.35 5.463-.9 2.283-2.35 4.104-4.35 5.462C16.65 18.322 14.433 19 12 19Z"/>
</svg>
